X: 79
T: The High Road To Linton
M: 4/4
C:C & D Part: Bobby MacLeod of Tobermory
L: 1/8
R: reel
K:Amix
"A"ceef a2 ae |"D" f2fe "A"a2 ae | ceef a2 ae | "D"faec "G"B2 "A"A2 :|
|: "A"ceeg "D"fddf |"A" ecce "Bm"fBBf | "A"ceeg "D"fddf |"A" ea ec "G"B2 "A"A2 :|
|: "A"{^g}a2 a2 ef a2 | efae "D"faef |"A" {^g}a2 a2 efae | "D"faec "G"B2 "A"A2 :|
|: "A"cdec "D"defd | "A"cdec "G"BcdB |"A" cdec "D"def^g |"A" afec "G"B2 "A"A2 :|


